src/svg/uEA02-web.svg

<svg xmlns="http://www.w3.org/2000/svg" viewBox="0 0 14 14"><path d="M12.6 11.2V4.9H9.8v6.3h2.8zM9.1 7.7V4.9H1.4v2.8h7.7zm0 3.5V8.4H1.4v2.8h7.7zm3.5-9.8c.8 0 1.4.6 1.4 1.4v8.4c0 .8-.6 1.4-1.4 1.4H1.4C.6 12.6 0 12 0 11.2V2.8c0-.8.6-1.4 1.4-1.4h11.2z"/></svg>

<?xml version="1.0" encoding="utf-8"?>
<!-- Generator: Adobe Illustrator 21.0.0, SVG Export Plug-In . SVG Version: 6.00 Build 0)  -->
<svg version="1.1" id="图层_1" xmlns="http://www.w3.org/2000/svg" xmlns:xlink="http://www.w3.org/1999/xlink" x="0px" y="0px"
	 viewBox="0 0 14 14" style="enable-background:new 0 0 14 14;" xml:space="preserve">
<path d="M12.6,11.2V4.9H9.8v6.3H12.6z M9.1,7.7V4.9H1.4v2.8H9.1z M9.1,11.2V8.4H1.4v2.8H9.1z M12.6,1.4C13.4,1.4,14,2,14,2.8v8.4
	c0,0.8-0.6,1.4-1.4,1.4H1.4C0.6,12.6,0,12,0,11.2V2.8C0,2,0.6,1.4,1.4,1.4H12.6z"/>
</svg>
